X:217
T:A Dieu commant amouretes
C:Adam de la Halle
R:Rondeau
O:XIIIe
M:6/8
L:1/8
Q:1/4=60
K:C 
%%continueall 1
%%maxshrink 0.6
V:1
%%MIDI program 74
f2 (3f/2e/2d/2 c/2B/2AB | cde/2f/2 ggf/2g/2 | a2 (3g/2f/2e/2 d/2c/2de | f2 (3f/2e/2d/2 c/2B/2AB | 
cde/2f/2 gf/2e/2d | f2z f2 (3f/2e/2d/2 | c/2B/2AB cde/2f/2 | ggf/2g/2 a2 (3g/2f/2e/2 | 
d/2c/2de f2 (3f/2e/2d/2 | c/2B/2AB cde/2f/2 | ggf/2g/2 a2 (3g/2f/2e/2 | d/2c/2de f2 (3f/2e/2d/2 | 
c/2B/2AB cde/2f/2 | ggf/2g/2 a2 (3g/2f/2e/2 | d/2c/2de f2 (3f/2e/2d/2 | c/2B/2AB cde/2f/2 | gf/2e/2d f3 |]
V:2
%%MIDI program 46
c2d e2 (3e/2d/2c/2 | f2e def | e/2d/2e (3e/2d/2c/2 B2z | c/2B/2cd e2 (3e/2d/2c/2 | 
f2e dcB | c2z c2d | e2 (3e/2d/2c/2 f2e | def e/2d/2e (3e/2d/2c/2 | 
B2z c2d | e2 (3e/2d/2c/2 f2e | def e/2d/2e (3e/2d/2c/2 | B2z c2d | 
e2 (3e/2d/2c/2 f2e | def e/2d/2e (3e/2d/2c/2 | B2z c/2B/2cd | e2 (3e/2d/2c/2 f2e | dcB c3 |]
V:3
%%MIDI program 73
F2F A2A | F2F GAF/2G/2 | A2A G2z | F2F A2A | 
F2F2<G2 | F2z F2F | A2A F2F | GAF/2G/2 A2A | 
G2z F2F | A2A F2F | GAF/2G/2 A2A | G2z F2F | 
A2A F2F | GAF/2G/2 A2A | G2z F2F | A2A F2F | G3 F3 |]




%%header "$P0	 $IR 	$P1"
%%footer $D - Éditions Galouvielle - 2009 - À usage librement privé dans le cadre familial

